img/2_HDPE.svg

<svg id="18e09d4c-1bfa-40a9-abab-53fa39719027" data-name="Calque 1" xmlns="http://www.w3.org/2000/svg" width="1000" height="1206.3" viewBox="0 0 1000 1206.3"><title>Resin Code Alt</title><path d="M880.7341,630.90843,822.96219,530.8458l-74.37944,42.94348,57.77191,100.06214c14.65023,25.37569,4.88018,47.82865-.001,56.28205C801.47351,738.58687,786.95886,758.3,757.6584,758.3H550V715.25332l-148.75889,85.886L550,887.02528V844.3H757.6584c51.377,0,97.38574-26.67251,123.07474-71.166A140.87281,140.87281,0,0,0,880.7341,630.90843Z"/><path d="M376.92487,184.63227,319.15314,284.69493l74.379,42.94323,57.77215-100.0629c14.65046-25.37508,38.93483-28.1153,48.69584-28.11456,9.76095-.00034,34.04576,2.73889,48.69647,28.11468L652.73233,407.77051l-37.34058,21.47162L764,515.12811v-171.772l-37.03887,21.47137L623.00075,184.63239c-25.689-44.49464-71.66129-71.0582-123.03825-71.05767C448.585,113.5744,402.6129,140.13818,376.92487,184.63227Z"/><path d="M242.34191,844.3H358v-86H242.34191c-29.30069,0-43.81508-19.71326-48.69584-28.16632s-14.65044-30.88066-.00021-56.2556L297.74591,493.66958,335,515.12829v-171.772l-148.823,85.886,37.15741,21.47134L119.28244,630.9092a140.87,140.87,0,0,0-.0078,142.22448C144.96309,817.628,190.96446,844.3,242.34191,844.3Z"/><path d="M432.792,643.09785c-28.76758,0-53.81543-18.84863-53.81543-52.57617V516.12129c0-33.72852,25.04785-52.57617,53.81543-52.57617,28.76855,0,53.56836,18.84766,53.56836,52.57617v74.40039C486.36035,624.24922,461.56055,643.09785,432.792,643.09785Zm21.32813-126.48047c0-14.88086-8.43164-24.05664-21.32812-24.05664-12.89551,0-21.5752,9.17578-21.5752,24.05664v73.65625c0,14.87988,8.67969,23.80762,21.5752,23.80762,12.89648,0,21.32813-8.92773,21.32813-23.80762Z"/><path d="M514.63184,641.60957V612.593l65.96875-76.63184c6.44824-7.68848,9.17578-13.14453,9.17578-21.32812,0-13.14453-7.6875-22.07227-21.32812-22.07227-10.66406,0-21.57617,5.45605-21.57617,22.56836H514.63184c0-32.24023,23.56055-51.584,53.81641-51.584,31.248,0,53.56836,19.5918,53.56836,51.33594,0,17.1123-6.69629,26.28809-18.84766,40.42383L553.81641,612.593h68.2002v29.0166Z"/><path d="M216.66309,1040.11348H182.6875v66.46387H148.21484V930.0002h68.44824c36.7041,0,58.28027,25.04883,58.28027,55.05664S253.36719,1040.11348,216.66309,1040.11348Zm-1.73535-79.36035H182.6875v48.35938h32.24023c15.624,0,25.54395-9.67187,25.54395-24.05566S230.55176,960.75313,214.92773,960.75313Z"/><path d="M303.957,1106.57734V930.0002h116.3125v30.75293H338.42871v41.416h69.68848v30.752H338.42871v42.9043h81.84082v30.752Z"/><path d="M448.04395,1050.77754v-30.00879h76.38477v30.00879Z"/><path d="M653.88379,1106.57734V1032.673H594.11523v73.9043H559.64258V930.0002h34.47266v72.16895h59.76855V930.0002h34.47168v176.57715Z"/><path d="M846.5791,1080.78535c-12.64844,17.6084-29.26465,25.792-53.32031,25.792H729.52246V930.0002h63.73633c24.05566,0,40.67188,8.18457,53.32031,25.793,10.91211,15.12793,11.16016,33.23145,11.16016,62.49609C857.73926,1047.55293,857.49121,1065.65742,846.5791,1080.78535ZM816.07422,971.66426c-5.70312-7.19141-14.13574-10.91113-25.792-10.91113H763.99414v115.07227h26.28809c11.65625,0,20.08887-3.71973,25.792-10.91211,6.44824-7.68848,7.19238-18.84863,7.19238-46.624C823.2666,990.51289,822.52246,979.35273,816.07422,971.66426Z"/></svg>

<svg width="1000" height="1207" viewBox="0 0 1000 1207" fill="none" xmlns="http://www.w3.org/2000/svg">
<path d="M880.734 630.908L822.962 530.846L748.583 573.789L806.355 673.851C821.005 699.227 811.235 721.68 806.354 730.133C801.474 738.587 786.959 758.3 757.658 758.3H550V715.253L401.241 801.139L550 887.025V844.3H757.658C809.035 844.3 855.044 817.627 880.733 773.134C893.35 751.559 900 727.015 900 702.021C900 677.028 893.351 652.484 880.734 630.908Z" fill="black"/>
<path d="M376.925 184.632L319.153 284.695L393.532 327.638L451.304 227.575C465.955 202.2 490.239 199.46 500 199.461C509.761 199.46 534.046 202.2 548.697 227.575L652.732 407.771L615.392 429.242L764 515.128V343.356L726.961 364.827L623.001 184.632C597.312 140.138 551.339 113.574 499.962 113.575C448.585 113.574 402.613 140.138 376.925 184.632Z" fill="black"/>
<path d="M242.342 844.3H358V758.3H242.342C213.041 758.3 198.527 738.587 193.646 730.134C188.765 721.681 178.996 699.253 193.646 673.878L297.746 493.67L335 515.128V343.356L186.177 429.242L223.334 450.714L119.282 630.909C106.664 652.484 100.013 677.027 100.012 702.021C100.011 727.014 106.659 751.558 119.275 773.134C144.963 817.628 190.964 844.3 242.342 844.3Z" fill="black"/>
<path d="M432.792 643.098C404.024 643.098 378.977 624.249 378.977 590.521V516.121C378.977 482.393 404.024 463.545 432.792 463.545C461.561 463.545 486.36 482.393 486.36 516.121V590.521C486.36 624.249 461.561 643.098 432.792 643.098ZM454.12 516.617C454.12 501.736 445.688 492.561 432.792 492.561C419.897 492.561 411.217 501.736 411.217 516.617V590.273C411.217 605.153 419.897 614.081 432.792 614.081C445.688 614.081 454.12 605.153 454.12 590.273L454.12 516.617Z" fill="black"/>
<path d="M514.632 641.609V612.593L580.601 535.961C587.049 528.272 589.776 522.816 589.776 514.633C589.776 501.488 582.089 492.561 568.448 492.561C557.784 492.561 546.872 498.017 546.872 515.129H514.632C514.632 482.889 538.192 463.545 568.448 463.545C599.696 463.545 622.017 483.137 622.017 514.881C622.017 531.993 615.32 541.169 603.169 555.305L553.816 612.593H622.017V641.609L514.632 641.609Z" fill="black"/>
<path d="M581.448 1041.11H547.473V1107.58H513V931H581.448C618.152 931 639.729 956.049 639.729 986.057C639.729 1016.06 618.152 1041.11 581.448 1041.11ZM579.713 961.753H547.473V1010.11H579.713C595.337 1010.11 605.257 1000.44 605.257 986.057C605.257 971.673 595.337 961.753 579.713 961.753Z" fill="black"/>
<path d="M668.742 1107.58V931H785.055V961.753H703.214V1003.17H772.902V1033.92H703.214V1076.83H785.055V1107.58H668.742Z" fill="black"/>
<path d="M280.241 1107.58V1033.67H220.473V1107.58H186V931H220.473V1003.17H280.241V931H314.713V1107.58H280.241Z" fill="black"/>
<path d="M472.937 1081.79C460.288 1099.39 443.672 1107.58 419.616 1107.58H355.88V931H419.616C443.672 931 460.288 939.185 472.937 956.793C483.849 971.921 484.097 990.024 484.097 1019.29C484.097 1048.55 483.849 1066.66 472.937 1081.79ZM442.432 972.664C436.729 965.473 428.296 961.753 416.64 961.753H390.352V1076.83H416.64C428.296 1076.83 436.729 1073.11 442.432 1065.91C448.88 1058.22 449.624 1047.06 449.624 1019.29C449.624 991.513 448.88 980.353 442.432 972.664Z" fill="black"/>
</svg>
